X:14
T:Untitled. AJH.014
M:2/4
L:1/8
Q:1/4=140
S:A.J.Hughes MS
O:England
A:North Shropshire
N:This tune follows AJH013 could have been be played after it.
N:In the MS there is no indication of the key change to A, but it is
N:almost certainly intended.
Z:Neil Brookes 2006
K:D
A|dddA|BBBA|Bcde|c/d/B/c/AA|!
fa/g/ f/e/d/c/|Bg/f/ e/d/c/B/|AA/c/ B/d/c/e/|d/f/a/f/”cr in MS” d:|!
K:A
|:E|AA/A/ Ac|ec A2|dB A/G/F/E/|A/c/e/c/ AE|!
AA/A/ Ac|ecA2|dB A/G/F/E/|Ac/B/ AA/A/|!
K:D
dA/A/ dA/A/|dB/B/ dB/B/|Ad f/e/d/c/|d/c/d/e/ dA|!
dA/A/ dA/A/|dB/B/ dB/B/|Ad f/e/d/c/|d3:|

